img/recomendation/4.svg

<svg width="44" height="44" viewBox="0 0 44 44" fill="none" xmlns="http://www.w3.org/2000/svg">
<g id="mdi:car-door">
<path id="Vector" d="M34.8333 25.6667H29.3333V29.3333H34.8333V25.6667ZM40.3333 38.5H5.5V20.1667L20.1667 5.5H38.5C38.9862 5.5 39.4525 5.69315 39.7964 6.03697C40.1402 6.38079 40.3333 6.8471 40.3333 7.33333V38.5ZM21.6883 9.16667L10.6883 20.1667H36.6667V9.16667H21.6883Z" fill="#13023E"/>
</g>
</svg>

<svg width="44" height="44" viewBox="0 0 44 44" fill="none" xmlns="http://www.w3.org/2000/svg"><g id="mdi:car-door"><path id="Vector" d="M34.833 25.667h-5.5v3.666h5.5v-3.666zm5.5 12.833H5.5V20.167L20.167 5.5H38.5a1.834 1.834 0 011.833 1.833V38.5zM21.688 9.167l-11 11h25.979v-11H21.688z" fill="#13023E"/></g></svg>
